X:1
T:Bobby Casey's
T:The Porthole of the Kelp
M:4/4
L:1/8
R:reel
K:Ddor
DE | F3G FDDE | FEFG ECCE | F2DE FGAG | FDEC A,D DE |
F2DE FGAB | cAGF EDCE | DEFG AddB | cAGE ED ::
DE | d3d dcAG | F3 F EDCE | d3d- dcAG | Ad^ce d3e |
fed^c dcAB | cAGF EDCE | DEFG AddB | cAGE ED :|
